X:87
T:Spanish March,The. JBs.087
S:Jas.Blackshaw MS, 1837, N.Shropshire
A:North Shropshire
Z:T. Weatherall 2006
M:4/4
L:1/8
Q:1/2=90
R:March
K:F
c2|f4 e>fg>e|f2f>ff2g2|a4 g>ab>g|a2a>aa2g2|!
fefga2g>f|eceg a2g2|acâ€™afe2d2|c2c>cc2:|!
|:z2|câ€™4a>fa>câ€™|b>câ€™dâ€™>bg4|b4g>eg>b|a>bcâ€™af2c2|!
fagba2g2|acâ€™bdâ€™câ€™2b2|(3abcâ€™ (3dâ€™câ€™ba2g2|f2f>ff2:|

